X: 11081
Q: "Andante"
M: 3/4
L: 1/8
K: A
(f/e/f/g/)Ha z>zf | (e>c A2) zA | (G/A/B/c/ d3) c | (c2 B3) A | {B}(A2 G2) zB |
(B2 A3) c | (c2 B2) {e}d2 | {e}(d2 c2) e2 | f4 (f>g/a//) | {a2}g4 a2 |
{f/}(f>e/d// c2) TB2{AB} |A4 z"^sym"e | fedcBA | G4 Az/e/ | (3fdB A2 {c}B2 |
{=g2}f4 (e/d/c/B/) | (A4 G2) zA | (B/c/B/c/ d2) c2 | (Tc2 {B/c}B2) z2 |
e4 c> A | {G2}F4 z2 | f2 (e<d) (c<B) | {A2}G4 ze |
(f/e/f/g/ a<f) (e<d) | (ecBA) (GA) | (F>B A2) G2 | A2 z2 "_sym"(3aaa |
(bagfed) | d2 caaa | (bagfed) | .c2 .a2 .a2 | .a4 |]



